X: 20912
T: BUNCH OF GREEN BUSHES or JOHNNY MACGILL
Q: "Allegretto"
%R: jig
B: "Edinburgh Repository of Music" v.2 p.92 #2
F: http://digital.nls.uk/special-collections-of-printed-music/pageturner.cfm?id=87776133
Z: 2015 John Chambers <jc:trillian.mit.edu>
M: 6/8
L: 1/8
K: A
a |\
ecc cBA | ecc c2a | ecc {d}cBc | AFF F2a |\
ecc cBA | ecc c2A | Bcd cBc | AFF F2 :|
|: e |\
aga bab | c'ba gfe | aga bab | c'af f2a/b/ |\
c'ac' bgb | afg Ha2(g/f/) | ecc {d}cBc | AFF F2 :|
